X: 34113
T: Reel Des Vieux
R: reel
M: 4/4
K: Dmajor
"D"[A3D3] B "Bm7"AGFA|"D/A"defe "G"dBAF|"A7"[A4D4] "D"[A4D4A,4]|A3 B "Bm7"AFDF|1 "2x""Em7"GEED "A7"EFGB:|2 "last time""Em7"GEED "A7"E4||
"Asus4"Acde "D"fded|"Bm7"Bcde "Em7"fee2|"Asus4"Acde "D"fded|"G"BdAF "A7"E2FE|
"D"ABde "Bm7"fded|"Em7"Bcde "A7"fee2|"G"Acde "A7"fded|"G"BdAF "A7"E2FE|
"D"ABde "Bm7"fded|"Em7"Bcde "A7"fefg|"D"afge "D/C#"fefg|
[M:3/2]"Bm7"afge "Bm/A"fedf "B9"ecAF|[M:C||"E(sus4)"E3D "A7"EFGB||

